X: 100
T: Polska efter Johan Ersson och Johan Olsson
O: S\"odermanland, Sweden
R: polska
%S: s:2 b:10(5+5)
S: http://folksweden.com/files/100-Ersson-Olsson.pdf (Tim Rued)
Z: 2021 John Chambers <jc:trillian.mit.edu>
M: 3/4
L: 1/8
K: Dm
|::: d>^c Ac e2 | fe ^ce g2 | gf/g/ af d>f |1,3 e>^c A2 A2 |2,4 e>^c d2 "^+"Dz :|
|::: aa/a/ (3aaa aa | ba a3 e | fg (3aba gf |1,3 ef de fg :|2,4 ef d2 "^+"Dz :|
